X:1
T:My Husband Got No Courage In Him
M:4/4
L:1/4
K:C
 G| G E GA/2-B/2| c B A G/2G/2| G E GA/2-B/2| c B A G/2G/2| A G A G|\
 A B c3/2 c/2|c/2-C/2 C C B| E D C A,| A, B, C2| C D/2D/2 EE/2-D/2|\
 C c B A| G E D C| A, B, C||
